public/home/services/tresury-manager.svg

<svg width="64" height="64" viewBox="0 0 64 64" fill="none" xmlns="http://www.w3.org/2000/svg">
<path d="M60.16 3H3.84C2.82157 3 1.84485 3.40539 1.12471 4.127C0.40457 4.84861 0 5.82732 0 6.84783V50.4565C0 51.477 0.40457 52.4557 1.12471 53.1773C1.84485 53.899 2.82157 54.3043 3.84 54.3043H10.24V60.7174C10.24 61.0576 10.3749 61.3838 10.6149 61.6243C10.855 61.8649 11.1805 62 11.52 62C11.8595 62 12.1851 61.8649 12.4251 61.6243C12.6651 61.3838 12.8 61.0576 12.8 60.7174V54.3043H51.2V60.7174C51.2 61.0576 51.3349 61.3838 51.5749 61.6243C51.8149 61.8649 52.1405 62 52.48 62C52.8195 62 53.145 61.8649 53.3851 61.6243C53.6251 61.3838 53.76 61.0576 53.76 60.7174V54.3043H60.16C61.1784 54.3043 62.1551 53.899 62.8753 53.1773C63.5954 52.4557 64 51.477 64 50.4565V6.84783C64 5.82732 63.5954 4.84861 62.8753 4.127C62.1551 3.40539 61.1784 3 60.16 3ZM60.16 51.7391H3.84C3.50052 51.7391 3.17495 51.604 2.9349 51.3635C2.69486 51.1229 2.56 50.7967 2.56 50.4565V6.84783C2.56 6.50766 2.69486 6.18142 2.9349 5.94089C3.17495 5.70035 3.50052 5.56522 3.84 5.56522H60.16C60.4995 5.56522 60.8251 5.70035 61.0651 5.94089C61.3051 6.18142 61.44 6.50766 61.44 6.84783V28.6522H53.6992C53.3698 25.0365 51.662 21.6872 48.9311 19.3011C46.2002 16.9149 42.6564 15.6755 39.0368 15.8407C35.4173 16.0059 32.0006 17.563 29.4974 20.188C26.9943 22.8131 25.5975 26.3041 25.5975 29.9348C25.5975 33.5655 26.9943 37.0565 29.4974 39.6815C32.0006 42.3066 35.4173 43.8637 39.0368 44.0289C42.6564 44.1941 46.2002 42.9547 48.9311 40.5685C51.662 38.1823 53.3698 34.8331 53.6992 31.2174H61.44V50.4565C61.44 50.7967 61.3051 51.1229 61.0651 51.3635C60.8251 51.604 60.4995 51.7391 60.16 51.7391ZM43.296 28.6522C42.9941 27.7964 42.3999 27.0751 41.6186 26.6159C40.8373 26.1566 39.9191 25.9889 39.0263 26.1424C38.1335 26.2959 37.3236 26.7607 36.7397 27.4547C36.1558 28.1486 35.8356 29.0271 35.8356 29.9348C35.8356 30.8425 36.1558 31.7209 36.7397 32.4149C37.3236 33.1089 38.1335 33.5737 39.0263 33.7272C39.9191 33.8807 40.8373 33.713 41.6186 33.2537C42.3999 32.7944 42.9941 32.0732 43.296 31.2174H51.1264C50.7993 34.1495 49.3641 36.8447 47.1158 38.7496C44.8674 40.6546 41.9765 41.6245 39.0367 41.4604C36.097 41.2962 33.3315 40.0104 31.3083 37.8669C29.2851 35.7235 28.1577 32.8851 28.1577 29.9348C28.1577 26.9845 29.2851 24.1461 31.3083 22.0026C33.3315 19.8592 36.097 18.5733 39.0367 18.4092C41.9765 18.245 44.8674 19.215 47.1158 21.1199C49.3641 23.0249 50.7993 25.7201 51.1264 28.6522H43.296Z" fill="#242424"/>
</svg>

<svg width="64" height="64" viewBox="0 0 64 64" fill="none" xmlns="http://www.w3.org/2000/svg"><path d="M60.16 3H3.84a3.84 3.84 0 0 0-2.715 1.127A3.85 3.85 0 0 0 0 6.847v43.61a3.85 3.85 0 0 0 1.125 2.72 3.84 3.84 0 0 0 2.715 1.127h6.4v6.413A1.284 1.284 0 0 0 11.52 62a1.28 1.28 0 0 0 1.28-1.283v-6.413h38.4v6.413A1.284 1.284 0 0 0 52.48 62a1.28 1.28 0 0 0 1.28-1.283v-6.413h6.4a3.84 3.84 0 0 0 2.715-1.127A3.85 3.85 0 0 0 64 50.457V6.846c0-1.02-.405-1.998-1.125-2.72A3.84 3.84 0 0 0 60.16 3m0 48.74H3.84a1.28 1.28 0 0 1-1.28-1.284V6.849a1.284 1.284 0 0 1 1.28-1.283h56.32a1.28 1.28 0 0 1 1.28 1.283v21.804H53.7a14.12 14.12 0 0 0-4.769-9.35 14.06 14.06 0 0 0-19.434.886 14.12 14.12 0 0 0-3.9 9.747c0 3.63 1.397 7.122 3.9 9.747a14.06 14.06 0 0 0 19.434.887 14.12 14.12 0 0 0 4.768-9.352h7.741v19.24a1.284 1.284 0 0 1-1.28 1.282M43.296 28.651a3.85 3.85 0 0 0-1.677-2.036 3.83 3.83 0 0 0-4.88.839 3.852 3.852 0 0 0 2.287 6.272 3.83 3.83 0 0 0 2.593-.473 3.85 3.85 0 0 0 1.677-2.037h7.83a11.55 11.55 0 0 1-4.01 7.533 11.505 11.505 0 0 1-15.808-.883 11.556 11.556 0 0 1 0-15.864 11.505 11.505 0 0 1 15.808-.883 11.55 11.55 0 0 1 4.01 7.532z" fill="#242424"/></svg>
